X: 37
T: String Quartet No. 9 in C Major, Op. 59, No. 3 mvt 4
C: Ludwig van Beethoven
%%abc-version 2.0
%%abcx-abcm2ps-target-version 5.9.1 (29 Sep 2008)
%%abc-creator hum2abc beta
%%abcx-conversion-date 2021/01/27 10:01:15
%%gracespace 0 6 6
%%humdrum-veritas 4185096253
%%humdrum-veritas-data 3532691969
%%linebreak <none>
%%barnumbers 0
L: 1/8
M: 2/2
N: Derived from quartet09-4.krn
Q: "Allegro molto" 1/2=138
%%staves [1 2 3 4]
V: 1 clef=treble
V: 2 clef=treble
V: 3 clef=alto
V: 4 clef=bass
K: C
[V:1] z8 | 
[V:2] z8 | 
[V:3] G4-GGAG | 
[V:4] z8 | 
[V:1] z8 | 
[V:2] z8 | 
[V:3] FED2z FGF | 
[V:4] z8 | 
[V:1] z8 | 
[V:2] z8 | 
[V:3] EDC2z GAG | 
[V:4] z8 | 
[V:1] z8 | 
[V:2] z8 | 
[V:3] FEDE FDGF | 
[V:4] z8 | 
[V:1] z8 | 
[V:2] z8 | 
[V:3] EDCD EFGE | 
[V:4] z8 | 
[V:1] z8 | 
[V:2] z8 | 
[V:3] AGFA BAGB | 
[V:4] z8 | 
[V:1] z8 | 
[V:2] z8 | 
[V:3] cdec GFEG | 
[V:4] z8 | 
[V:1] z8 | 
[V:2] z8 | 
[V:3] AGFA BAGB | 
[V:4] z8 | 
[V:1] z8 | 
[V:2] z8 | 
[V:3] ccdc AABA | 
[V:4] z8 | 
[V:1] z8 | 
[V:2] z8 | 
[V:3] ^FFGF DDED | 
[V:4] z8 | 
[V:1] z8 | 
[V:2] d4-dded | 
[V:3] GDE^F GFG^G | 
[V:4] z8 | 
[V:1] z8 | 
[V:2] cBA2z cdc | 
[V:3] A=G^FE FDEF | 
[V:4] z8 | 
[V:1] z8 | 
[V:2] BAG2z ded | 
[V:3] GDE^F GFG^G | 
[V:4] z8 | 
[V:1] z8 | 
[V:2] cBAB cAdc | 
[V:3] A=G^FE DCB,A, | 
[V:4] z8 | 
[V:1] z8 | 
[V:2] BAGA BcdB | 
[V:3] .G,2.D2.B,2.G,2 | 
[V:4] z8 | 
[V:1] z8 | 
[V:2] edce ^fedf | 
[V:3] .C2.A,2.D2.C2 | 
[V:4] z8 | 
[V:1] z8 | 
[V:2] gabg dcBd | 
[V:3] .B,2.D2.B,2.G,2 | 
[V:4] z8 | 
[V:1] z8 | 
[V:2] edce ed^ce | 
[V:3] .C2.G,2.^C2.G,2 | 
[V:4] z8 | 
[V:1] z8 | 
[V:2] =ffgf dded | 
[V:3] .D2.G,2.F2.G,2 | 
[V:4] z8 | 
[V:1] z8 | 
[V:2] BBcB GGAG | 
[V:3] .G2.G,2.F2.G,2 | 
[V:4] z8 | 
[V:1] z8 | 
[V:2] cBcd eAB^c | 
[V:3] EDEF G^CDE | 
[V:4] G,4-G,G,A,G, | 
[V:1] z8 | 
[V:2] defd BGAB | 
[V:3] FGAF DB,=CD | 
[V:4] F,E,D,2z F,G,F, | 
[V:1] z8 | 
[V:2] =cdee e^cde | 
[V:3] EFGG GA,B,^C | 
[V:4] E,D,C,2z G,A,G, | 
[V:1] z8 | 
[V:2] fgag fB=cd | 
[V:3] DEFE DG,A,B, | 
[V:4] F,E,D,E, F,D,G,F, | 
[V:1] z8 | 
[V:2] .e2.g2.c2._b2 | 
[V:3] .=C2.E2.G2.C2 | 
[V:4] E,D,C,D, E,F,G,E, | 
[V:1] z8 | 
[V:2] .c2.a2.d2.g2 | 
[V:3] .C2.F2.F2.F2 | 
[V:4] A,G,F,A, B,A,G,B, | 
[V:1] z8 | 
[V:2] .c2.g2.c2.g2 | 
[V:3] .E2.E2._B2.B2 | 
[V:4] CDEC G,F,E,G, | 
[V:1] z8 | 
[V:2] .c2.f2.d2.f2 | 
[V:3] .A2.c2.G2.d2 | 
[V:4] A,G,F,A, B,A,G,B, | 
[V:1] z8 | 
[V:2] .d2.e2.c2.e2 | 
[V:3] .G2.d2.A2.c2 | 
[V:4] CCB,C A,A,^G,A, | 
[V:1] z8 | 
[V:2] .d2D2D2.d2 | 
[V:3] c2.C2.B,2.B2 | 
[V:4] F,F,E,F, =G,G,^F,G, | 
[V:1] g4-ggag | 
[V:2] c2G2-GGAG | 
[V:3] EG,A,B, CB,C^C | 
[V:4] E,G,,A,,B,, C,B,,C,^C, | 
[V:1] fed2z fgf | 
[V:2] FED2z FGF | 
[V:3] DEFD B,DG,B, | 
[V:4] D,E,F,D, B,,D,G,,B,, | 
[V:1] edc2z gag | 
[V:2] EDC2z GAG | 
[V:3] =CB,CD EDC^C | 
[V:4] =C,B,,C,D, E,D,C,^C, | 
[V:1] fede fdgf | 
[V:2] FEDE FDGF | 
[V:3] DA,B,^C D=CB,G, | 
[V:4] D,A,,B,,^C, D,=C,B,,G,, | 
[V:1] edcd efge | 
[V:2] EDCD EFGE | 
[V:3] .C2.G,2.C,2._B,2 | 
[V:4] .C,2.G,,2.C,,2._B,,2 | 
[V:1] agfa bagb | 
[V:2] AGFA BAGB | 
[V:3] F,2A,2D,2G,2 | 
[V:4] F,,2A,,2D,,2G,,2 | 
[V:1] c'd'e'c' gfeg | 
[V:2] cdec GFEG | 
[V:3] E,2G,2C,2_B,2 | 
[V:4] E,,2G,,2C,,2_B,,2 | 
[V:1] aaga bbab | 
[V:2] AAGA BBAB | 
[V:3] F,2A,2D,2G,2 | 
[V:4] F,,2A,,2D,,2G,,2 | 
[V:1] c'c'bc' d'd'c'd' | 
[V:2] ccBc ddcd | 
[V:3] .A,4.B,4 | 
[V:4] .A,,4.=B,,4 | 
[V:1] e'e'd'e' f'f'e'f' | 
[V:2] eede ffef | 
[V:3] .C4.D4 | 
[V:4] .C,4.D,4 | 
[V:1] g'g'a'g' f'f'g'f' | 
[V:2] ggag ffgf | 
[V:3] .E4.F4 | 
[V:4] .E,4.F,4 | 
[V:1] e'e'f'e' d'd'e'd' | 
[V:2] eefe dded | 
[V:3] .G4.^G4 | 
[V:4] .G,4.^G,4 | 
[V:1] c'c'bc' d'd'c'd' | 
[V:2] c2c2z2[G2d2] | 
[V:3] .A4.D4 | 
[V:4] .A,4.B,4 | 
[V:1] e'e'd'e' f'f'e'f' | 
[V:2] z2[c2e2]z2[B2f2] | 
[V:3] .G4.F4 | 
[V:4] .C4D4 | 
[V:1] g'g'a'g' f'f'g'f' | 
[V:2] z2g2z2[d2f2] | 
[V:3] C2c2z2A2 | 
[V:4] .E4.F,4 | 
[V:1] e'e'f'e' d'd'e'd' | 
[V:2] z2[c2e2]z2[G,2F2] | 
[V:3] z2G2z2B,2 | 
[V:4] .G,4.G,,4 | 
[V:1] c'gc'c' c'g.c'.c' | 
[V:2] [G,2E2]z2[G,2G2]z2 | 
[V:3] C2z2E2z2 | 
[V:4] [C,,2C,2]z2[C,,2C,2]z2 | 
[V:1] c'g.c'.c' c'g.c'.c' | 
[V:2] [G,2G2]z2[G,2G2]z2 | 
[V:3] E2z2E2z2 | 
[V:4] [C,,2C,2]z2[C,,2C,2]z2 | 
[V:1] [d8b8]- | 
[V:2] _AF.A.A AF.A.A | 
[V:3] FD.F.F FD.F.F | 
[V:4] [C,,8C,8]- | 
[V:1] [d8b8] | 
[V:2] _AF.A.A GF.G.G | 
[V:3] FD.F.F FD.F.F | 
[V:4] [C,,8C,8] | 
[V:1] c'g.c'.c' c'g.c'.c' | 
[V:2] [G,2G2]z2[G,2G2]z2 | 
[V:3] E2z2E2z2 | 
[V:4] [C,,2C,2]z2[C,,2C,2]z2 | 
[V:1] c'g.c'.c' c'g.c'.c' | 
[V:2] [G,2G2]z2[G,2G2]z2 | 
[V:3] E2z2E2z2 | 
[V:4] [C,,2C,2]z2[C,,2C,2]z2 | 
[V:1] [_B8_b8]- | 
[V:2] GE.G.G GE.G.G | 
[V:3] E^C.E.E EC.E.E | 
[V:4] ^C,8- | 
[V:1] [B8b8] | 
[V:2] GE.G.G GE.G.G | 
[V:3] E^C.E.E ECE.E | 
[V:4] C,8 | 
[V:1] ae.a.az4 | 
[V:2] G2z2FD.F.F | 
[V:3] E2z2DA,.D.D | 
[V:4] ^C,2z2D,2z2 | 
[V:1] gd.g.gz4 | 
[V:2] F2z2EC.E.E | 
[V:3] D2z2CG,.C.C | 
[V:4] B,,2z2=C,2z2 | 
[V:1] ae.a.a ^ae.a.a | 
[V:2] z2E2z2G2 | 
[V:3] z2C2z2E2 | 
[V:4] C,2z2C,2z2 | 
[V:1] beb.b c'e.c'.c' | 
[V:2] z2G2z2A2 | 
[V:3] z2E2z2E2 | 
[V:4] B,,2z2A,,2z2 | 
[V:1] c'_e.c'.c' c'd.c'.c' | 
[V:2] z2A2z2A2 | 
[V:3] z2_E2z2D2 | 
[V:4] G,,2z2^F,,2z2 | 
[V:1] c'abc' ^fgac | 
[V:2] A2z2z4 | 
[V:3] D2z2z4 | 
[V:4] ^F,,2z2z4 | 
[V:1] deAB c^FGA | 
[V:2] z8 | 
[V:3] z8 | 
[V:4] z8 | 
[V:1] DE^FA, B,^CDE | 
[V:2] z8 | 
[V:3] z8 | 
[V:4] z8 | 
[V:1] ^FCDE FGA^G | 
[V:2] z8 | 
[V:3] z8 | 
[V:4] z8 | 
[V:1] ABc^cd2d2 | 
[V:2] D8- | 
[V:3] z4CB,A,^F, | 
[V:4] z8 | 
[V:1] abc'^c'd'2d'2 | 
[V:2] D8- | 
[V:3] z8 | 
[V:4] z4C,B,,A,,^F,, | 
[V:1] z4d'=c'bg | 
[V:2] D8- | 
[V:3] z8 | 
[V:4] D,,E,,F,,^F,,G,,2G,,2 | 
[V:1] z4dcBG | 
[V:2] D8 | 
[V:3] D,E,=F,^F,G,2G,2 | 
[V:4] z8 | 
[V:1] ABc^cd2d2 | 
[V:2] [D8d8]- | 
[V:3] z4CB,A,^F, | 
[V:4] z8 | 
[V:1] abc'^c'd'2d'2 | 
[V:2] [D8d8]- | 
[V:3] z8 | 
[V:4] z4C,B,,A,,^F,, | 
[V:1] z4d'=c'bg | 
[V:2] [D8d8]- | 
[V:3] z8 | 
[V:4] D,,E,,=F,,^F,,G,,2G,,2 | 
[V:1] z4dcBG | 
[V:2] [D2d2]>c2 BAGF | 
[V:3] D,E,=F,^F,G,2G,2 | 
[V:4] z8 | 
[V:1] e4-e^fga | 
[V:2] E^FG^GA4- | 
[V:3] E,^F,G,^G,A,4- | 
[V:4] C,8- | 
[V:1] g^fed gdBG | 
[V:2] A2A2=G2G2 | 
[V:3] A,2^F2D2D2 | 
[V:4] C,2C2B,2B,2 | 
[V:1] e4-e^fga | 
[V:2] E^FG^GA4- | 
[V:3] E,^F,=G,^G,A,4- | 
[V:4] C2C,6- | 
[V:1] ^f4-fgab | 
[V:2] A^F=GAB4- | 
[V:3] A,^F,=G,A,B,4- | 
[V:4] C,2D,6- | 
[V:1] g4-gabc' | 
[V:2] BGABc4- | 
[V:3] B,G,A,B,C4- | 
[V:4] D,2E,6- | 
[V:1] a4-abc'd' | 
[V:2] cABcd4 | 
[V:3] CA,B,CD4 | 
[V:4] E,2^F,6 | 
[V:1] d'c'bg e'd'c'a | 
[V:2] [G2d2]z2[G2e2]z2 | 
[V:3] B,2z2C2z2 | 
[V:4] G,2z2G,2z2 | 
[V:1] d'c'bg ^fdd'd' | 
[V:2] [G2d2]z2cA^FF | 
[V:3] B,2z2A,CCC | 
[V:4] G,2z2G,2z2 | 
[V:1] d'c'bg e'd'c'a | 
[V:2] [G2d2]z2[G2e2]z2 | 
[V:3] B,2z2C2z2 | 
[V:4] G,2z2G,2z2 | 
[V:1] d'g'ggg4- | 
[V:2] z4dgGG | 
[V:3] z8 | 
[V:4] z8 | 
[V:1] g4g4- | 
[V:2] BBcc ffee | 
[V:3] DDCC DDCC | 
[V:4] F,F,E,E, B,,B,,C,C, | 
[V:1] g4g4- | 
[V:2] BBcc ffee | 
[V:3] DDCC DDCC | 
[V:4] F,F,E,E, B,,B,,C,C, | 
[V:1] g2_a2g2g2 | 
[V:2] fFFF FFFF | 
[V:3] B,DDD DDDD | 
[V:4] D,D,B,,B,, G,,G,,B,,B,, | 
[V:1] d'g'ggg4- | 
[V:2] F2z2dgGG | 
[V:3] B,2z2z4 | 
[V:4] G,,2z2z4 | 
[V:1] g4g4- | 
[V:2] BBcc ffee | 
[V:3] DDCC [G,D][G,D]CC | 
[V:4] F,F,E,E, B,,B,,C,C, | 
[V:1] g4g4- | 
[V:2] BBcc ffee | 
[V:3] DDCC [G,D][G,D]CC | 
[V:4] F,F,E,E, B,,B,,C,C, | 
[V:1] g2_a2.a2.a2 | 
[V:2] ffff ffff | 
[V:3] DDDD DDDD | 
[V:4] _B,,B,,B,,B,, B,,B,,B,,B,, | 
[V:1] _a2d'2f'2_a'2 | 
[V:2] ffff ffff | 
[V:3] DDDD DDDD | 
[V:4] _B,,B,,B,,B,, B,,B,,B,,B,, | 
[V:1] g'2_b'2.b'2.b'2 | 
[V:2] gggg gggg | 
[V:3] _EEEE EEEE | 
[V:4] _B,,B,,B,,B,, G,,G,,_E,,E,, | 
[V:1] ._b'4._b4 | 
[V:2] f2z2z4 | 
[V:3] D2z2z4 | 
[V:4] _B,,2z2z4 | 
[V:1] _B,8- | 
[V:2] z4z _BcB | 
[V:3] z4z =E,D,E, | 
[V:4] z8 | 
[V:1] B,8- | 
[V:2] _AGF2z A_BA | 
[V:3] F,G,_A,2z D,C,D, | 
[V:4] z8 | 
[V:1] B,8- | 
[V:2] GF_E2z =EDE | 
[V:3] _E,F,G,2z GFG | 
[V:4] z4z _B,,C,B,, | 
[V:1] B,8- | 
[V:2] FG_A2z DCD | 
[V:3] _A_Bc2z F_EF | 
[V:4] _A,,G,,F,,2z A,,_B,,A,, | 
[V:1] B,2._B2._e2.g2 | 
[V:2] _E2z2z4 | 
[V:3] G2z2z4 | 
[V:4] G,,F,,_E,,F,, G,,_A,,_B,,G,, | 
[V:1] _A6_a2 | 
[V:2] z2.g2.f2._B2 | 
[V:3] z4z2F2 | 
[V:4] C,_B,,_A,,C, D,C,B,,D, | 
[V:1] g2z2z4 | 
[V:2] [_E2_B2].B2._e2.g2 | 
[V:3] _B,_A,G,F, G,A,B,G, | 
[V:4] _E,2z2z4 | 
[V:1] z2._d'2._b2.c'2 | 
[V:2] f4g2_B2 | 
[V:3] _DC_B,D =E=DCE | 
[V:4] z8 | 
[V:1] c'4-c'c'_d'c' | 
[V:2] _A6A2 | 
[V:3] [C6F6][C2F2] | 
[V:4] F,,4-F,,F,,=E,,F,, | 
[V:1] _b_ag2z bc'b | 
[V:2] _B6B2 | 
[V:3] [C6E6][C2G2] | 
[V:4] G,,_A,,_B,,2z E,,D,,E,, | 
[V:1] _agf2z fef | 
[V:2] _A4z c_dc | 
[V:3] [C4F4]z _A,_B,A, | 
[V:4] F,,G,,_A,,2z4 | 
[V:1] g_a_b2z ede | 
[V:2] _B_AG2z BcB | 
[V:3] G,F,E,2z G,_A,G, | 
[V:4] C,2z2z4 | 
[V:1] f2.C2.F2._A2 | 
[V:2] c2z2z4 | 
[V:3] [F,2_A,2]z2z4 | 
[V:4] _A,,G,,F,,G,, A,,_B,,C,A,, | 
[V:1] _B,6_B2 | 
[V:2] z2._A2.G2.C2 | 
[V:3] z4z2G,2 | 
[V:4] _D,C,_B,,D, =E,=D,C,E, | 
[V:1] _A2z2z4 | 
[V:2] C2F2_A2_d2 | 
[V:3] F,_E,_D,C, D,E,F,D, | 
[V:4] F,2z2z4 | 
[V:1] z2_b2_a2a2 | 
[V:2] _G6_g2 | 
[V:3] _B,_A,_G,B, CB,A,C | 
[V:4] z8 | 
[V:1] _a4-aa_ba | 
[V:2] f4-ff_gf | 
[V:3] _D2z2_A4- | 
[V:4] _D,2z2F4- | 
[V:1] _gf_e2z g_ag | 
[V:2] _e_dc2z efe | 
[V:3] A_A_BA _GF_E2 | 
[V:4] FF_GF _E_DC2 | 
[V:1] f_e_d2z ^g=ag | 
[V:2] _dcd2z =e^fe | 
[V:3] z _G_AG_F2z2 | 
[V:4] z _EFE_D2z2 | 
[V:1] ^f=e^d2z f^gf | 
[V:2] ^d^c^B2z ded | 
[V:3] z ^G=AG ^F=E^D2 | 
[V:4] z =E^FE ^D^C^B,2 | 
[V:1] e^c'e'e' e'c'.e'.e' & e2x6 | 
[V:2] ^ce^gg ge.g.g | 
[V:3] E2z2E,2z2 | 
[V:4] ^C2z2^C,2z2 | 
[V:1] e'^c'.e'.e' e'c'.e'.e' | 
[V:2] ^ge.g.g ge.g.g | 
[V:3] E,2z2E,2z2 | 
[V:4] ^C,2z2C,2z2 | 
[V:1] ^b8- | 
[V:2] [^d8^f8]- | 
[V:3] A,^F,.A,.A, A,F,.A,.A, | 
[V:4] ^C,8- | 
[V:1] b8 | 
[V:2] [d8f8] | 
[V:3] A,^F,.A,.A, ^G,F,.G,.G, | 
[V:4] C,8 | 
[V:1] ^c'c'e'e' e'c'.e'.e' | 
[V:2] e2z2z4 | 
[V:3] ^G,E.^G.G GE.G.G | 
[V:4] ^C,2z2C,2z2 | 
[V:1] e'^c'.e'.e' e'c'.e'.e' | 
[V:2] z8 | 
[V:3] ^GE.G.G GE.G.G | 
[V:4] ^C,2z2C,2z2 | 
[V:1] ^b8- | 
[V:2] ^f^d.f.f fd.f.f | 
[V:3] A8- | 
[V:4] ^C,8- | 
[V:1] b8 | 
[V:2] ^f^d.f.f fd.f.f | 
[V:3] A4^G4 | 
[V:4] C,8 | 
[V:1] ^c'2z2z ^gag | 
[V:2] e2z2z ^GAG | 
[V:3] ^G2^C,2C,2C,2 | 
[V:4] ^C,2C,2E,,2E,,2 | 
[V:1] a2a2z ^b^c'b | 
[V:2] A2A2z ^B^cB | 
[V:3] ^C,2C,2C,2C,2 | 
[V:4] ^F,,2F,,2^G,,2G,,2 | 
[V:1] ^c'2c'2z ^gag | 
[V:2] ^c2c2z ^GAG | 
[V:3] ^C,2C,2C,2C,2 | 
[V:4] A,,2A,,2E,,2E,,2 | 
[V:1] a^g^fe.^d2.g2 | 
[V:2] A^G^FE.^D2.G2 | 
[V:3] ^C,2C,2^B,,2B,,2 | 
[V:4] ^F,,2F,,2^G,,2G,,2 | 
[V:1] ^c2c2z ^gag | 
[V:2] ^C2C2z ^GAG | 
[V:3] ^C,C,C,C, C,C,C,C, | 
[V:4] ^C,,C,,C,,C,, E,,E,,E,,E,, | 
[V:1] a2a2z ^b^c'b | 
[V:2] A2A2z ^B^cB | 
[V:3] ^C,C,C,C, C,C,C,C, | 
[V:4] ^F,,F,,F,,F,, ^G,,G,,G,,G,, | 
[V:1] ^c'2c'2z ^d'e'd' | 
[V:2] ^c2c2z ^ded | 
[V:3] ^C,C,C,C, ^G,G,G,G, | 
[V:4] A,,A,,A,,A,, ^B,,B,,B,,B,, | 
[V:1] .e'2.e'2.^b2.b2 | 
[V:2] .e2.e2.^d2.d2 | 
[V:3] ^G,G,G,G, ^F,F,F,F, | 
[V:4] ^C,C,C,C, ^G,,G,,G,,G,, | 
[V:1] ^c'^g.c'.c' c'g.c'.c' | 
[V:2] [E2^c2]z2E2z2 | 
[V:3] ^G,2z2^C2z2 | 
[V:4] ^C,,2z2^C,2z2 | 
[V:1] ^c'^g.c'.c' c'g.c'.c' | 
[V:2] E2z2E2z2 | 
[V:3] ^C2z2C2z2 | 
[V:4] ^C,2z2C,2z2 | 
[V:1] ^c'8- | 
[V:2] =GE.G.G GE.G.G | 
[V:3] E^C.E.E EC.E.E | 
[V:4] A,,8- | 
[V:1] c'8- | 
[V:2] GE.G.G GE.G.G | 
[V:3] E^C.E.E EC.E.E | 
[V:4] A,,8 | 
[V:1] c'^c'.e'.e' e'c'.e'.e' | 
[V:2] G2z2[A,2G2]z2 | 
[V:3] E2z2[^C2E2]z2 | 
[V:4] A,,2z2A,,2z2 | 
[V:1] e'^c'.e'.e' e'c'.e'.e' | 
[V:2] [G2^c2]z2[c2e2]z2 | 
[V:3] [A,2E2]z2[A,2E2]z2 | 
[V:4] A,,2z2A,,2z2 | 
[V:1] g'8- | 
[V:2] ge.g.g ge.g.g | 
[V:3] EA,.E.E EA,.E.E | 
[V:4] ^C,,A,,.C,,.C,, C,,A,,.C,,.C,, | 
[V:1] g'8 | 
[V:2] ge.g.g ge.g.g | 
[V:3] EA,.E.E EA,.E.E | 
[V:4] ^C,,A,,.C,,.C,, C,,A,,.C,,.C,, | 
[V:1] f'2z2.d'4 | 
[V:2] f2z2z4 | 
[V:3] D2z2z A,_B,A, | 
[V:4] D,,2z2z4 | 
[V:1] ._b4.g4 | 
[V:2] z8 | 
[V:3] _B,2B,2z ^CDC | 
[V:4] z8 | 
[V:1] f4-fa_ba | 
[V:2] z4D4 | 
[V:3] D2D2A,4 | 
[V:4] z4F,4 | 
[V:1] gfe2z gag | 
[V:2] D4E4 | 
[V:3] _B,4^C4 | 
[V:4] E,4A,4 | 
[V:1] fed2z4 | 
[V:2] F2z2.d4 | 
[V:3] D2z2z4 | 
[V:4] D,2z2z A,,_B,,A,, | 
[V:1] z8 | 
[V:2] ._B4.G4 | 
[V:3] z8 | 
[V:4] _B,,2B,,2z ^C,D,C, | 
[V:1] z4A,4 | 
[V:2] F4-FA_BA | 
[V:3] z4F,4 | 
[V:4] D,D,,D,,D,, D,,D,,D,,D,, | 
[V:1] _B,4^C4 | 
[V:2] GFE2z GAG | 
[V:3] E,4A,4 | 
[V:4] D,,D,,D,,D,, D,,D,,D,,D,, | 
[V:1] DDED A,A,_B,A, | 
[V:2] F2f2z2f2 | 
[V:3] A,2D2z2D2 | 
[V:4] D,,2z2D,2z2 | 
[V:1] _B,B,CB, ^CCDC | 
[V:2] z2f2z2f2 | 
[V:3] z2D2z2D2 | 
[V:4] D,2z2D,2z2 | 
[V:1] DDED EEFE | 
[V:2] z2f2z2f2 | 
[V:3] z2d2z2d2 | 
[V:4] D,2z2D,2z2 | 
[V:1] FFGF GGAG | 
[V:2] z2f2z2f2 | 
[V:3] z2d2z2d2 | 
[V:4] D,2z2D,2z2 | 
[V:1] AA_BA GGAG | 
[V:2] [A8a8]- | 
[V:3] _E8- | 
[V:4] C,8- | 
[V:1] FFGF EEFE | 
[V:2] [A8a8]- | 
[V:3] E4c4 | 
[V:4] C,8- | 
[V:1] FFGF _EEFE | 
[V:2] [A2a2][c2a2]z2[c2a2] | 
[V:3] _e2_E2z2C2 | 
[V:4] C,2z2F,,2z2 | 
[V:1] CCDC FFGF | 
[V:2] z2[c2a2]z2[c2a2] | 
[V:3] z2F,2z2F,2 | 
[V:4] F,,2z2F,,2z2 | 
[V:1] _B,2d2z2d2 | 
[V:2] [d_b]_BcB FFGF | 
[V:3] _B,2_B2z2B2 | 
[V:4] _B,,2z2B,,2z2 | 
[V:1] z2d2z2d2 | 
[V:2] GGAG AA_BA | 
[V:3] z2_B2z2B2 | 
[V:4] _B,,2z2B,,2z2 | 
[V:1] z2d2z2d2 | 
[V:2] _BBcB ccdc | 
[V:3] z2_B2z2_B,2 | 
[V:4] _B,,2z2B,,2z2 | 
[V:1] z2d2z2d2 | 
[V:2] dd_ed eefe | 
[V:3] z2_B,2z2B,2 | 
[V:4] _B,,2z2B,,2z2 | 
[V:1] [_B8_b8]- | 
[V:2] ff_gf _eefe | 
[V:3] F8- | 
[V:4] _D,8- | 
[V:1] [B8b8]- | 
[V:2] _dd_ed ccdc | 
[V:3] F8- | 
[V:4] D,8- | 
[V:1] [B2b2]_b2z2b2 | 
[V:2] _BBcB _dd_ed | 
[V:3] F2F2z2F2 | 
[V:4] D,2z2_B,,2z2 | 
[V:1] z2_b2z2[c2b2] | 
[V:2] cc_dc GG_AG | 
[V:3] z2E2z2C2 | 
[V:4] C,2z2C,2z2 | 
[V:1] [c2_a2]_A2z2A2 | 
[V:2] _A2F2z2F2 | 
[V:3] F,F,G,F, C,C,D,C, | 
[V:4] F,,2z2F,,2z2 | 
[V:1] z2_A2z2A2 | 
[V:2] z2F2z2F2 | 
[V:3] D,D,E,D, E,E,F,E, | 
[V:4] F,,2z2F,,2z2 | 
[V:1] z2_A2z2A2 | 
[V:2] z2F2z2F2 | 
[V:3] F,F,G,F, G,G,_A,G, | 
[V:4] F,,2z2F,,2z2 | 
[V:1] z2_A2z2A2 | 
[V:2] z2F2z2F2 | 
[V:3] _A,A,_B,A, B,B,CB, | 
[V:4] F,,2z2F,,2z2 | 
[V:1] f8- | 
[V:2] [F8c8]- | 
[V:3] CC_DC _B,B,CB, | 
[V:4] _A,,8- | 
[V:1] f8- | 
[V:2] [F4c4][F4d4]- | 
[V:3] _A,A,_B,A, G,G,A,G, | 
[V:4] A,,4=B,,4- | 
[V:1] f2[G,2F2]z2[G,2F2] | 
[V:2] [F2d2]D2z2D2 | 
[V:3] F,F,G,F, _A,A,_B,A, | 
[V:4] B,,2z2B,,2z2 | 
[V:1] z2[G,2F2]z2B2 | 
[V:2] z2D2z2[G,2G2] | 
[V:3] G,G,_A,G, D,D,_E,D, | 
[V:4] B,,2z2G,,2z2 | 
[V:1] c2g2z2g2 | 
[V:2] [G,2G2]_e2z2e2 | 
[V:3] _E,2C2z2C2 | 
[V:4] C,C,D,C, G,,G,,A,,G,, | 
[V:1] z2g2z2g2 | 
[V:2] z2_e2z2e2 | 
[V:3] z2C2z2C2 | 
[V:4] A,,A,,B,,A,, B,,B,,C,B,, | 
[V:1] z2g2z2g2 | 
[V:2] z2_e2z2e2 | 
[V:3] z2C2z2C2 | 
[V:4] C,C,D,C, D,D,_E,D, | 
[V:1] z2g2z2g2 | 
[V:2] z2_e2z2e2 | 
[V:3] z2C2z2C2 | 
[V:4] _E,E,F,E, F,F,G,F, | 
[V:1] g8- | 
[V:2] _e8- | 
[V:3] C8- | 
[V:4] G,G,_A,G, F,F,G,F, | 
[V:1] g8- | 
[V:2] e8- | 
[V:3] C8- | 
[V:4] _E,E,F,E, D,D,E,D, | 
[V:1] g2g2z2g2 | 
[V:2] e2_e2z2c2 | 
[V:3] C2C2z2G2 | 
[V:4] C,C,D,C, _E,E,F,E, | 
[V:1] z2g2z2g2 | 
[V:2] z2_e2z2^c2 | 
[V:3] z2G2z2G2 | 
[V:4] C,C,D,C, _E,E,F,E, | 
[V:1] [A4^f4]-[Af] d'_e'd' | 
[V:2] d8 | 
[V:3] A8 | 
[V:4] D,8 | 
[V:1] c'_ba2z d'_e'd' | 
[V:2] [A,8^F8] | 
[V:3] [C8D8] | 
[V:4] D,,8 | 
[V:1] c'_ba2z d'_e'd' | 
[V:2] [A,8^F8] | 
[V:3] [C8D8] | 
[V:4] D,,8 | 
[V:1] c'_bab c'ad'd' | 
[V:2] [A,8^F8] | 
[V:3] [C8D8] | 
[V:4] D,,8 | 
[V:1] [d8=b8] | 
[V:2] [G,4=F4]-[G,F]G_AG | 
[V:3] G,8 | 
[V:4] G,,8 | 
[V:1] [d8b8] | 
[V:2] =F_ED2z G_AG | 
[V:3] [F,8G,8] | 
[V:4] G,,8 | 
[V:1] [d8b8] | 
[V:2] F_ED2z G_AG | 
[V:3] [F,8G,8] | 
[V:4] G,,8 | 
[V:1] [d8b8] | 
[V:2] F_EDE FDGG | 
[V:3] [F,8G,8] | 
[V:4] G,,8 | 
[V:1] _b8 | 
[V:2] =E8 | 
[V:3] [E,4G,4]-[E,G,]c_dc | 
[V:4] [C,,8C,8] | 
[V:1] [G,8E8] | 
[V:2] _B,8 | 
[V:3] _B_AG2z c_dc | 
[V:4] [C,,8C,8] | 
[V:1] [G,8E8] | 
[V:2] _B,8 | 
[V:3] _B_AG2z c_dc | 
[V:4] [C,,8C,8] | 
[V:1] [G,8E8] | 
[V:2] _B,6G2 | 
[V:3] _B_AGA BGcc | 
[V:4] [C,,8C,8] | 
[V:1] [_A,6F6]c2 | 
[V:2] C6[C2_A2] | 
[V:3] _AGFG Ac=dc | 
[V:4] F,,6F,2 | 
[V:1] c6c2 | 
[V:2] [C6G6][C2G2] | 
[V:3] GF_EF Gcdc | 
[V:4] _E,6E,2 | 
[V:1] c6c2 | 
[V:2] [C6F6][C2F2] | 
[V:3] F_EDE Fcdc | 
[V:4] D,6D,2 | 
[V:1] c4-c c'd'c' | 
[V:2] [C6_E6][C2E2] | 
[V:3] _EDCDE2z2 | 
[V:4] C,6_E,,2 | 
[V:1] _agfg ac'd'c' | 
[V:2] _A6A2 | 
[V:3] _A,6A,2 | 
[V:4] F,,6F,,2 | 
[V:1] gf_ef gc'd'c' | 
[V:2] G6G2 | 
[V:3] G,6G,2 | 
[V:4] _E,,6E,,2 | 
[V:1] f_ede fc'd'c' | 
[V:2] F6F2 | 
[V:3] F,6F,2 | 
[V:4] D,,6D,,2 | 
[V:1] _edcde2z2 | 
[V:2] [G,6_E6][G,2E2] | 
[V:3] _E,4-E, CDC | 
[V:4] C,,6C,2 | 
[V:1] z4z g_ag | 
[V:2] [G,6D6][G,2D2] | 
[V:3] =B,A,G,2z2B,2 | 
[V:4] G,,6G,,2 | 
[V:1] _edc2z4 | 
[V:2] [G,6_E6][G,2E2] | 
[V:3] C4-C CDC | 
[V:4] C,6C,2 | 
[V:1] z4z g_ag | 
[V:2] [G,6D6][G,2D2] | 
[V:3] B,A,G,2z2B,2 | 
[V:4] G,,6G,,2 | 
[V:1] _edcd edc_B | 
[V:2] [G,6_E6]c_B | 
[V:3] C6C_B, | 
[V:4] C,6C_B, | 
[V:1] _AGFG AGF_E | 
[V:2] _AGFG AGF_E | 
[V:3] _A,G,F,G, A,G,F,_E, | 
[V:4] _A,G,F,G, A,G,F,_E, | 
[V:1] D_EFE DEDC | 
[V:2] D_EFE DEDC | 
[V:3] D,2F_E DEDC | 
[V:4] D,_E,F,E, D,E,D,C, | 
[V:1] =B,CDC B,CB,_A, | 
[V:2] =B,CDC B,CB,_A, | 
[V:3] =B,CDC B,CB,_A, | 
[V:4] =B,,C,D,C, B,,C,B,,_A,, | 
[V:1] G,BdB FBFD | 
[V:2] G,FFF FFFF | 
[V:3] G,DDD DDDD | 
[V:4] G,,G,,G,,G,, G,,G,,G,,G,, | 
[V:1] G,dfd BdBF | 
[V:2] FBBB BBBB | 
[V:3] DFFF FFFF | 
[V:4] G,,G,,G,,G,, G,,G,,G,,G,, | 
[V:1] G,fbf dfdB | 
[V:2] Bddd dFFF | 
[V:3] FBBB BDDD | 
[V:4] G,,G,,G,,G,, G,,G,,_A,,A,, | 
[V:1] dfbf bd'f'd' | 
[V:2] FDDD DBBB | 
[V:3] DB,B,B, B,DDD | 
[V:4] G,,G,,_A,,A,, G,,G,,A,,A,, | 
[V:1] !fermata!f'8 | 
[V:2] !fermata![D8B8] | 
[V:3] !fermata![G,8D8] | 
[V:4] !fermata!G,,8 | 
[V:1] [G,8G8]- | 
[V:2] G8- | 
[V:3] G8- | 
[V:4] G,,8- | 
[V:1] [G,8G8] | 
[V:2] G8 | 
[V:3] G8 | 
[V:4] G,,8 | 
[V:1] .C4.^C4 | 
[V:2] C2z2z4 | 
[V:3] G4-GGAG | 
[V:4] C,,2z2z4 | 
[V:1] .D4.G,4 | 
[V:2] z8 | 
[V:3] FED2z FGF | 
[V:4] z8 | 
[V:1] .C4.^C4 | 
[V:2] z8 | 
[V:3] EDC2z GAG | 
[V:4] z8 | 
[V:1] .D4.G,4 | 
[V:2] z8 | 
[V:3] FEDE FDGF | 
[V:4] z8 | 
[V:1] .C4._B,4 | 
[V:2] z8 | 
[V:3] EDCD EFGE | 
[V:4] z8 | 
[V:1] .A,4.F4 | 
[V:2] z8 | 
[V:3] AGFA BAGB | 
[V:4] z8 | 
[V:1] .E4._B4 | 
[V:2] z8 | 
[V:3] cdec GFEG | 
[V:4] z8 | 
[V:1] .A4.F4 | 
[V:2] z8 | 
[V:3] AGFA BAGB | 
[V:4] z8 | 
[V:1] .E4.C4 | 
[V:2] z8 | 
[V:3] ccdc AABA | 
[V:4] z8 | 
[V:1] .A,4.C4 | 
[V:2] z8 | 
[V:3] ^FFGF DDED | 
[V:4] z8 | 
[V:1] B,4z4 | 
[V:2] d4-dded | 
[V:3] G2z2B,4 | 
[V:4] .G,4.^G,4 | 
[V:1] z8 | 
[V:2] cBA2z cdc | 
[V:3] .C4.^F,4 | 
[V:4] .A,4.D,4 | 
[V:1] z8 | 
[V:2] BAG2z ded | 
[V:3] B,4B,4 | 
[V:4] .G,4.^G,4 | 
[V:1] z8 | 
[V:2] cBA2z cdc | 
[V:3] .C4.^F,4 | 
[V:4] .A,4.D,4 | 
[V:1] z8 | 
[V:2] BAGA BcdB | 
[V:3] B,4._A,4 | 
[V:4] .G,4.F,4 | 
[V:1] z8 | 
[V:2] edce ^fedf | 
[V:3] .G,4.C4 | 
[V:4] E,4.A,4 | 
[V:1] z8 | 
[V:2] gabg dcBd | 
[V:3] B,4._A4 | 
[V:4] .G,4.F4 | 
[V:1] z8 | 
[V:2] edce ed^ce | 
[V:3] .G4._B4 | 
[V:4] .E4.G4 | 
[V:1] z8 | 
[V:2] ffgf dded | 
[V:3] .=A4.A,4 | 
[V:4] .F4.F,4 | 
[V:1] z4.d4 | 
[V:2] BBcB GGAG | 
[V:3] .F,4.F,4 | 
[V:4] .D,4.B,,4 | 
[V:1] .e4.e4 | 
[V:2] .c4.^c4 | 
[V:3] E,2z2z4 | 
[V:4] G,4-G,G,A,G, | 
[V:1] .f4.B4 | 
[V:2] .d4G4 | 
[V:3] z8 | 
[V:4] F,E,D,2z F,G,F, | 
[V:1] .e4.e4 | 
[V:2] .=c4.^c4 | 
[V:3] z8 | 
[V:4] E,D,C,2z G,A,G, | 
[V:1] .f4.B4 | 
[V:2] .d4.G4 | 
[V:3] z8 | 
[V:4] F,E,D,2z F,G,F, | 
[V:1] .e4.g4 | 
[V:2] .=c4._B4 | 
[V:3] z8 | 
[V:4] E,D,C,D, E,F,G,E, | 
[V:1] .f4.d4 | 
[V:2] A4.f4 | 
[V:3] z8 | 
[V:4] A,G,F,A, B,A,G,B, | 
[V:1] .c4.c4 | 
[V:2] .e4._b4 | 
[V:3] z8 | 
[V:4] CDEC G,F,E,G, | 
[V:1] .c4.d4 | 
[V:2] .a4.f4 | 
[V:3] z8 | 
[V:4] A,G,F,A, B,A,G,B, | 
[V:1] .c4c4- | 
[V:2] .e4d4- | 
[V:3] z4.F4 | 
[V:4] CCB,C A,A,^G,A, | 
[V:1] c4.B4 | 
[V:2] d4.d4 | 
[V:3] ._A4.G4 | 
[V:4] F,F,E,F, =G,G,^F,G, | 
[V:1] g4-ggag | 
[V:2] [E4c4]._B4 | 
[V:3] .C4._B,4 | 
[V:4] .C,4.^C,4 | 
[V:1] fed2z fgf | 
[V:2] .A4.=B4 | 
[V:3] .A,4.=B,4 | 
[V:4] .D,4.G,,4 | 
[V:1] edc2z gag | 
[V:2] cccc _BBBB | 
[V:3] CCCC _B,B,B,B, | 
[V:4] .C,4.^C,4 | 
[V:1] fede fdgf | 
[V:2] AAAA =BBBB | 
[V:3] A,A,A,A, =B,B,B,B, | 
[V:4] .D,4.G,,4 | 
[V:1] edcd efge | 
[V:2] cccc cccc | 
[V:3] CCCC CCCC | 
[V:4] .C,4._B,,4 | 
[V:1] agfa bagb | 
[V:2] cccc GGGG | 
[V:3] CCCC G,G,G,G, | 
[V:4] .A,,4.F,,4 | 
[V:1] c'd'e'c' gfeg | 
[V:2] Gccc cccc | 
[V:3] G,CCC CCCC | 
[V:4] .E,,4._B,,4 | 
[V:1] agfa bagb | 
[V:2] cccc GGGG | 
[V:3] CCCC G,G,G,G, | 
[V:4] .A,,4.F,4 | 
[V:1] c'c'bc' d'd'c'd' | 
[V:2] Gggg gggg | 
[V:3] G,GGG GGGG | 
[V:4] .E,4.=B,,4 | 
[V:1] e'e'd'e' f'f'e'f' | 
[V:2] gggg gggg | 
[V:3] GGGG GGGG | 
[V:4] .C,4.D,4 | 
[V:1] g'g'a'g' f'f'g'f' | 
[V:2] gccc ccdd | 
[V:3] GGGG AAAA | 
[V:4] .E,4.F,4 | 
[V:1] e'e'f'e' d'd'e'd' | 
[V:2] ddcc ccBB | 
[V:3] GGGG FFFF | 
[V:4] .G,4.^G,4 | 
[V:1] c'c'bc' d'd'c'd' | 
[V:2] ccBc ddcd | 
[V:3] .E4.G4 | 
[V:4] A,A,G,A, B,B,A,B, | 
[V:1] e'e'd'e' f'f'e'f' | 
[V:2] eede ffef | 
[V:3] .G4.B4 | 
[V:4] CCB,C DDCD | 
[V:1] g'g'a'g' f'f'g'f' | 
[V:2] ggag ffgf | 
[V:3] .c4Aded | 
[V:4] EEDE FFEF | 
[V:1] e'e'f'e' d'd'e'd' | 
[V:2] eefe dFGF | 
[V:3] cGAG FB,A,B, | 
[V:4] GG,G,G, G,G,,G,,G,, | 
[V:1] c'g.c'.c' c'g.c'.c' | 
[V:2] E2z2[C2G2]z2 | 
[V:3] C2z2[G,2E2]z2 | 
[V:4] .[C,,2C,2]z2[C,,2C,2]z2 | 
[V:1] c'g.c'.c' c'g.c'.c' | 
[V:2] [C2G2]z2[C2G2]z2 | 
[V:3] [G,2E2]z2[G,2E2]z2 | 
[V:4] [C,,2C,2]z2[C,,2C,2]z2 | 
[V:1] [d8b8]- | 
[V:2] _AF.A.A AF.A.A | 
[V:3] FD.F.F FD.F.F | 
[V:4] [C,,8C,8]- | 
[V:1] b8 & d8 | 
[V:2] _AF.A.A GF.G.G | 
[V:3] FD.F.F FD.F.F | 
[V:4] [C,,8C,8] | 
[V:1] c'g.c'.c' c'g.c'.c' | 
[V:2] [C2G2]z2[C2G2]z2 | 
[V:3] [G,2E2]z2[G,2E2]z2 | 
[V:4] [C,,2C,2]z2[C,,2C,2]z2 | 
[V:1] c'g.c'.c' c'g.c'.c' | 
[V:2] [C2G2]z2[C2G2]z2 | 
[V:3] [G,2E2]z2[G,2E2]z2 | 
[V:4] [C,,2C,2]z2[C,,2C,2]z2 | 
[V:1] [_B8_b8]- | 
[V:2] GE.G.G GE.G.G | 
[V:3] E^C.E.E EC.E.E | 
[V:4] ^C,8- | 
[V:1] [B8b8] | 
[V:2] GE.G.G GE.G.G | 
[V:3] E^C.E.E EC.E.E | 
[V:4] C,8 | 
[V:1] ae.a.az4 | 
[V:2] G2z2FD.F.F | 
[V:3] E2z2DA,.D.D | 
[V:4] ^C,2z2D,2z2 | 
[V:1] gd.g.gz4 | 
[V:2] F2z2EC.E.E | 
[V:3] D2z2=CG,.C.C | 
[V:4] B,,2z2=C,2z2 | 
[V:1] ae.a.az4 | 
[V:2] GGGG FD.F.F | 
[V:3] EEEE DA,.D.D | 
[V:4] ^C,2z2D,2z2 | 
[V:1] gd.g.gz4 | 
[V:2] FFFF EC.E.E | 
[V:3] DDDD CG,.C.C | 
[V:4] B,,2z2=C,2z2 | 
[V:1] ae.a.a _be.b.b | 
[V:2] z2E2z2G2 | 
[V:3] z2C2z2E2 | 
[V:4] C,2z2C,2z2 | 
[V:1] =be.b.b c'e.c'.c' | 
[V:2] z2G2z2G2 | 
[V:3] z2E2z2E2 | 
[V:4] B,,2z2_B,,2z2 | 
[V:1] c'f.c'.c' c'f.c'.c' | 
[V:2] z2[C2F2]z2[C2^F2] | 
[V:3] z2A,2z2_A,2 | 
[V:4] A,,2z2_A,,2z2 | 
[V:1] bf.b.b d'b.d'.d' | 
[V:2] z2[B,2G2]z2[B,2D2] | 
[V:3] z2G,2z2G,2 | 
[V:4] G,,2z2G,,2z2 | 
[V:1] d'e'f'b c'd'fg | 
[V:2] [B,2F2]z2z4 | 
[V:3] [G,2D2]z2z4 | 
[V:4] G,,2z2z4 | 
[V:1] adef BcdF | 
[V:2] z8 | 
[V:3] z8 | 
[V:4] z8 | 
[V:1] GADE FB,CD | 
[V:2] z8 | 
[V:3] z8 | 
[V:4] z8 | 
[V:1] G,A,B,C DB,CD | 
[V:2] z8 | 
[V:3] z8 | 
[V:4] z8 | 
[V:1] EFGA BABc | 
[V:2] z8 | 
[V:3] z8 | 
[V:4] z8 | 
[V:1] def^fg2g2 | 
[V:2] G,8- | 
[V:3] z4A,G,F,D, | 
[V:4] z8 | 
[V:1] d'e'f'^f'g'2g'2 | 
[V:2] G,8- | 
[V:3] z8 | 
[V:4] z4A,,G,,F,,D,, | 
[V:1] z4g'=f'e'c' | 
[V:2] G,8- | 
[V:3] z8 | 
[V:4] G,,A,,_B,,=B,,C,2C,2 | 
[V:1] z4gfec | 
[V:2] G,8 | 
[V:3] G,A,_B,=B,C2C2 | 
[V:4] z8 | 
[V:1] def^fg2g2 | 
[V:2] [G,8G8]- | 
[V:3] z4A,G,F,D, | 
[V:4] z8 | 
[V:1] d'e'f'^f'g'2g'2 | 
[V:2] [G,8G8]- | 
[V:3] z8 | 
[V:4] z4A,,G,,F,,D,, | 
[V:1] z4g'=f'e'c' | 
[V:2] [G,8G8]- | 
[V:3] z8 | 
[V:4] G,,A,,_B,,=B,,C,2C,2 | 
[V:1] z4gfec | 
[V:2] [G,8G8] | 
[V:3] G,A,_B,=B,C2C2 | 
[V:4] z8 | 
[V:1] a4-abc'd' | 
[V:2] A6d2- | 
[V:3] A,B,C^CD2A2 | 
[V:4] F,6F2- | 
[V:1] c'bag c'gec | 
[V:2] d2d2c2c2 | 
[V:3] B2B2G2C2 | 
[V:4] F2F2E2E2 | 
[V:1] a4-abc'd' | 
[V:2] ABc^cd4- | 
[V:3] A,B,C^CD4- | 
[V:4] F2F,6- | 
[V:1] b4-bc'd'e' | 
[V:2] dB=cde4- | 
[V:3] DB,=CDE4- | 
[V:4] F,2G,6- | 
[V:1] c'4-c'd'e'f' | 
[V:2] ecdef4- | 
[V:3] ECDEF4- | 
[V:4] G,2A,6- | 
[V:1] d'4-d'e'f'g' | 
[V:2] fdefg4 | 
[V:3] FDEFG2F2 | 
[V:4] A,2B,6 | 
[V:1] g'f'e'c' a'g'f'd' | 
[V:2] [c2g2]z2[c2a2]z2 | 
[V:3] E2z2F2z2 | 
[V:4] C2z2C2z2 | 
[V:1] g'f'e'c' bgg'g' | 
[V:2] [c2g2]z2B2z2 | 
[V:3] E2z2[D2F2]z2 | 
[V:4] C2z2C2z2 | 
[V:1] gfec agfd | 
[V:2] [G2c2]z2[A2c2]z2 | 
[V:3] E2z2[C2F2]z2 | 
[V:4] C2z2C,2z2 | 
[V:1] gc'ccc4- | 
[V:2] [G2c2]z2GcCC | 
[V:3] [C2E2]z2z4 | 
[V:4] C,2z2z4 | 
[V:1] c4c4- | 
[V:2] EEFF _BBAA | 
[V:3] G,G,A,A, GGFF | 
[V:4] _B,B,A,A, E,E,F,F, | 
[V:1] c4c4- | 
[V:2] EEFF _BBAA | 
[V:3] G,G,A,A, GGFF | 
[V:4] _B,B,A,A, E,E,F,F, | 
[V:1] c2_d2c2c2 | 
[V:2] _B_B,B,B, B,B,B,B, | 
[V:3] EG,G,G, G,G,G,G, | 
[V:4] G,G,E,E, C,C,E,E, | 
[V:1] gc'ccc4- | 
[V:2] _B,2z2GcCC | 
[V:3] G,2z2z4 | 
[V:4] C,2z2z4 | 
[V:1] c4c4- | 
[V:2] EEFF _BBAA | 
[V:3] G,G,F,F, G,G,F,F, | 
[V:4] _B,,B,,A,,A,, E,,E,,F,,F,, | 
[V:1] c4c4- | 
[V:2] EEFF _BBAA | 
[V:3] G,G,F,F, G,G,F,F, | 
[V:4] _B,,B,,A,,A,, E,,E,,F,,F,, | 
[V:1] c2_d2.d2.d2 | 
[V:2] _BBBB BBBB | 
[V:3] G,G,G,G, G,G,G,G, | 
[V:4] E,,E,,E,,E,, E,,E,,E,,E,, | 
[V:1] _d2g2_b2_d'2 | 
[V:2] _BBBB BBBB | 
[V:3] G,G,G,G, G,G,G,G, | 
[V:4] _E,,E,,E,,E,, E,,E,,E,,E,, | 
[V:1] c'2_e'2.e'2.e'2 | 
[V:2] cccc cccc | 
[V:3] _A,A,A,A, A,A,A,A, | 
[V:4] _E,,E,,_E,E, C,C,_A,,A,, | 
[V:1] ._e'4._e4 | 
[V:2] _B2z2z4 | 
[V:3] G,2z2z4 | 
[V:4] _E,,2z2z4 | 
[V:1] _E8- | 
[V:2] z4z _efe | 
[V:3] z4z =A,G,A, | 
[V:4] z8 | 
[V:1] E8- | 
[V:2] _dc_B2z d_ed | 
[V:3] _B,C_D2z G,F,G, | 
[V:4] z8 | 
[V:1] E8- | 
[V:2] c_B_A2z =AGA | 
[V:3] _A,_B,C2z c_Bc | 
[V:4] z4z _EFE | 
[V:1] E8- | 
[V:2] _Bc_d2z GFG | 
[V:3] _d_ef2z _B_AB | 
[V:4] _DC_B,2z D_ED | 
[V:1] E4-E_efe | 
[V:2] _A_Bc2z4 | 
[V:3] c_d_e2z4 | 
[V:4] C_B,_A,2z4 | 
[V:1] _dc_Bd gf_eg | 
[V:2] z4_D2z2 | 
[V:3] z4_B,2z2 | 
[V:4] z4_E,2z2 | 
[V:1] _a_bc'az4 | 
[V:2] C2z2z4 | 
[V:3] _A,2z2z C_DC | 
[V:4] _A,,2z2z4 | 
[V:1] z4_B2z2 | 
[V:2] z4[C2G2]z2 | 
[V:3] _B,_A,G,B, =E=DCE | 
[V:4] z4C,2z2 | 
[V:1] _A2z2z2C2 | 
[V:2] [C2F2]z2z c=dc | 
[V:3] FG_AFz2^F,2 | 
[V:4] F,,2z2z2_A,,2 | 
[V:1] =B,2z2[G,2_E2]z2 | 
[V:2] =BcdF _EFGC | 
[V:3] G,2z2C2z2 | 
[V:4] G,,2z2C,2z2 | 
[V:1] [G,2D2]z2B,CDB, | 
[V:2] B,CDG,z4 | 
[V:3] G,2z2z4 | 
[V:4] G,,2z2z4 | 
[V:1] _EDCE ^FEDF | 
[V:2] z4c4 | 
[V:3] z4A,4 | 
[V:4] G,,2z2z4 | 
[V:1] GABG DCB,D | 
[V:2] B2z2z4 | 
[V:3] B,2z2z4 | 
[V:4] G,,2z2z4 | 
[V:1] _EDCE ^FEDF | 
[V:2] z4c4 | 
[V:3] z4A,4 | 
[V:4] G,,2z2z4 | 
[V:1] GBdB GBGD | 
[V:2] BDDD DDDD | 
[V:3] B,B,B,B, B,B,B,B, | 
[V:4] G,,G,,G,,G,, G,,G,,G,,G,, | 
[V:1] G,dfd BdBF | 
[V:2] D[DF][DF][DF] [DF][DF][DF][DF] | 
[V:3] B,B,B,B, B,B,B,B, | 
[V:4] G,,G,,G,,G,, G,,G,,G,,G,, | 
[V:1] G,fbf dfbf | 
[V:2] [DF][FB][FB][FB] [FB][FB][FB][FB] | 
[V:3] B,DDD DDDD | 
[V:4] G,,G,,G,,G,, G,,G,,_A,,A,, | 
[V:1] fbd'b bd'f'd' | 
[V:2] [FB][Fd][Fd][Fd] [Fd][Fd][Fd][Fd] | 
[V:3] D[DB][DB][DB] [DB][DB][DB][DB] | 
[V:4] G,,G,,_A,,A,, G,,G,,A,,A,, | 
[V:1] f'8- | 
[V:2] [F2d2]z2z4 | 
[V:3] [D2B2]z2z4 | 
[V:4] G,,2z2z4 | 
[V:1] f'8 | 
[V:2] z8 | 
[V:3] z8 | 
[V:4] z8 | 
[V:1] ^f'8- | 
[V:2] _E2z2z4 | 
[V:3] C2z2z4 | 
[V:4] A,,2z2z4 | 
[V:1] f'8 | 
[V:2] z8 | 
[V:3] z8 | 
[V:4] z8 | 
[V:1] g'8- | 
[V:2] [G,2D2]z2z4 | 
[V:3] B,2z2z4 | 
[V:4] B,,2z2z4 | 
[V:1] g'8- | 
[V:2] z8 | 
[V:3] z8 | 
[V:4] z8 | 
[V:1] g'8- | 
[V:2] z4z2ag | 
[V:3] .C4.^C4 | 
[V:4] z8 | 
[V:1] g'8- | 
[V:2] fed2z2gf | 
[V:3] .D4.G,4 | 
[V:4] z8 | 
[V:1] g'8- | 
[V:2] edc2z2ag | 
[V:3] .C4.^C4 | 
[V:4] z8 | 
[V:1] g'8- | 
[V:2] fed2z2gf | 
[V:3] .D4.G,4 | 
[V:4] z8 | 
[V:1] g'6a'g' | 
[V:2] edc2g4- | 
[V:3] .E4.E4 | 
[V:4] .C4.^C4 | 
[V:1] f'e'd'2z2g'f' | 
[V:2] g8- | 
[V:3] .F4.D4 | 
[V:4] .D4.G,4 | 
[V:1] e'd'c'2z2a'g' | 
[V:2] g8- | 
[V:3] .E4.E4 | 
[V:4] .C4.^C4 | 
[V:1] f'e'd'2z g'f'd' | 
[V:2] g8 | 
[V:3] .F4.G4 | 
[V:4] D4.G,4 | 
[V:1] .c'4.^c'4 | 
[V:2] .e4.e4 | 
[V:3] G8- | 
[V:4] C2z2z2A,G, | 
[V:1] .d'4.b4 | 
[V:2] .f4.d4 | 
[V:3] G8- | 
[V:4] F,E,D,2z2G,F, | 
[V:1] .=c'4.^c'4 | 
[V:2] .e4.e4 | 
[V:3] G8- | 
[V:4] E,D,C,2z2A,G, | 
[V:1] .d'4.d'4 | 
[V:2] .f4.b4 | 
[V:3] G8 | 
[V:4] F,E,D,2z2G,F, | 
[V:1] .e'4.e'4 | 
[V:2] .c'4.^c'4 | 
[V:3] G,8- | 
[V:4] E,D,C,2z2A,,G,, | 
[V:1] .f'4.d'4 | 
[V:2] .d'4.b4 | 
[V:3] G,8- | 
[V:4] F,,E,,D,,2z2G,,F,, | 
[V:1] .e'4.e'4 | 
[V:2] .c'4.^c'4 | 
[V:3] G,8- | 
[V:4] E,,D,,C,,2z2A,,G,, | 
[V:1] .f'4.d'4 | 
[V:2] .d'4.b4 | 
[V:3] G,8 | 
[V:4] F,,E,,D,,2z2G,,2 | 
[V:1] g'g'a'g' f'f'g'f' | 
[V:2] =c'2z2g4- | 
[V:3] C,2z2G4- | 
[V:4] E,,2z2z4 | 
[V:1] e'e'f'e' d'd'e'd' | 
[V:2] g4c4- | 
[V:3] G4C4- | 
[V:4] C,2z2z4 | 
[V:1] c'c'd'c' bbc'b | 
[V:2] c4G4- | 
[V:3] C4G,4- | 
[V:4] E,,2z2z4 | 
[V:1] aaba ^ggag | 
[V:2] G4C4- | 
[V:3] G,4C,4- | 
[V:4] E,,2z2z4 | 
[V:1] aaba ^ggag | 
[V:2] C4A4- | 
[V:3] C,4A,4- | 
[V:4] F,,2z2z4 | 
[V:1] aaba dded | 
[V:2] A4D4- | 
[V:3] A,4C4- | 
[V:4] F,,2z2z4 | 
[V:1] ggag ccdc | 
[V:2] D4E4 | 
[V:3] C4C4- | 
[V:4] G,,2z2z4 | 
[V:1] dded GGAG | 
[V:2] F8 | 
[V:3] C4B,4 | 
[V:4] G,,2z2z4 | 
[V:1] ggag ffgf | 
[V:2] z8 | 
[V:3] GGAG FFGF | 
[V:4] E,,2z2z4 | 
[V:1] eefe dded | 
[V:2] g4f4 | 
[V:3] EEFE DDED | 
[V:4] C,,2z2z4 | 
[V:1] ccdc BBcB | 
[V:2] e4d4 | 
[V:3] CCDC B,B,CB, | 
[V:4] C,,2z2z4 | 
[V:1] AABA ^GGAG | 
[V:2] c4B4 | 
[V:3] A,A,B,A, ^G,G,A,G, | 
[V:4] E,,2z2z4 | 
[V:1] AABA ^GGAG | 
[V:2] A4d4- | 
[V:3] A,A,B,A, ^G,G,A,G, | 
[V:4] F,,2z2z4 | 
[V:1] AABA DDED | 
[V:2] d4f4 | 
[V:3] A,A,B,A, D,D,E,D, | 
[V:4] F,,2z2z4 | 
[V:1] =GGAG CCDC | 
[V:2] e4g4 | 
[V:3] =G,G,A,G, C,C,D,C, | 
[V:4] G,,2z2z4 | 
[V:1] DDED G,G,A,G, | 
[V:2] f4d4 | 
[V:3] D,D,E,D, F,F,F,F, | 
[V:4] G,,2z2z4 | 
[V:1] CCDC _B,-B,CB, | 
[V:2] e2z2e4 | 
[V:3] E,2z2z4 | 
[V:4] C,2z2z4 | 
[V:1] A,A,G,A, =B,B,A,B, | 
[V:2] f2z2f4 | 
[V:3] z4D4 | 
[V:4] C,2z2z4 | 
[V:1] CCDC _B,B,CB, | 
[V:2] e2z2e4 | 
[V:3] G,2z2z4 | 
[V:4] C,2z2z4 | 
[V:1] A,A,G,A, =B,B,A,B, | 
[V:2] f2z2f4 | 
[V:3] z4D4 | 
[V:4] C,2z2z4 | 
[V:1] CCDC _B,B,CB, | 
[V:2] e2z2g4- | 
[V:3] G,2z2z4 | 
[V:4] C,2z2z4 | 
[V:1] A,A,_B,A, ^CCDC | 
[V:2] g4e4 | 
[V:3] z4A4- | 
[V:4] A,,2z2z4 | 
[V:1] DDED _A,A,_B,A, | 
[V:2] f2z2f4- | 
[V:3] A2z2z4 | 
[V:4] D,2z2z4 | 
[V:1] G,G,_A,G, =B,B,CB, | 
[V:2] f4d4 | 
[V:3] z4G4- | 
[V:4] G,,2z2z4 | 
[V:1] CCDC _B,B,CB, | 
[V:2] e2z2g4- | 
[V:3] G2z2E4- | 
[V:4] C,2z2z4 | 
[V:1] A,A,_B,A, CCDC | 
[V:2] g4e4 | 
[V:3] E4A,4- | 
[V:4] A,,2z2z4 | 
[V:1] DDED _A,A,_B,A, | 
[V:2] f2z2f4- | 
[V:3] A,2z2D4- | 
[V:4] D,2z2z4 | 
[V:1] G,G,_A,G, =B,B,CB, | 
[V:2] f4d4 | 
[V:3] D4G,4- | 
[V:4] G,,2z2z4 | 
[V:1] CCB,C DDCD | 
[V:2] e8- | 
[V:3] G,2z2z4 | 
[V:4] C,2z2z4 | 
[V:1] EEDE FFEF | 
[V:2] e8 | 
[V:3] z8 | 
[V:4] z8 | 
[V:1] GGFG AAGA | 
[V:2] d8- | 
[V:3] [G,8F8]- | 
[V:4] G,8- | 
[V:1] _BBAB =BBAB | 
[V:2] d8 | 
[V:3] [G,8F8] | 
[V:4] G,8 | 
[V:1] ccBc ddcd | 
[V:2] c8 | 
[V:3] [G,2E2]z2z4 | 
[V:4] C2z2z4 | 
[V:1] eede ffef | 
[V:2] G8 | 
[V:3] z8 | 
[V:4] z8 | 
[V:1] ggfg aaga | 
[V:2] [G,8F8]- | 
[V:3] D,8- | 
[V:4] G,,8- | 
[V:1] _bbab =bbab | 
[V:2] [G,8F8] | 
[V:3] D,8 | 
[V:4] G,,8 | 
[V:1] c'c'bc' c'c'bc' | 
[V:2] [G,E]cBc ccBc | 
[V:3] C,2z2CCDC | 
[V:4] C,2z2C,C,D,C, | 
[V:1] d'd'c'd' e'e'd'e' | 
[V:2] ddcd eede | 
[V:3] B,B,CB, A,A,B,A, | 
[V:4] B,,B,,C,B,, A,,A,,B,,A,, | 
[V:1] f'f'e'f' g'g'f'g' | 
[V:2] ffef ggfg | 
[V:3] G,G,A,G, F,F,G,F, | 
[V:4] G,,G,,A,,G,, F,,F,,G,,F,, | 
[V:1] a'a'g'a' b'b'a'b' | 
[V:2] aaga bbab | 
[V:3] E,E,F,E, D,D,E,D, | 
[V:4] E,,E,,F,,E,, D,,D,,E,,D,, | 
[V:1] c''2z2z4 | 
[V:2] c'2z2z4 | 
[V:3] C,2z2z4 | 
[V:4] C,,2z2z4 | 
[V:1] _B,2z2z4 | 
[V:2] _B,2z2z4 | 
[V:3] _B,2z2z4 | 
[V:4] _B,,2z2z4 | 
[V:1] !fermata!A,6ag | 
[V:2] !fermata!A,6AG | 
[V:3] !fermata!A,6A,G, | 
[V:4] !fermata!A,,6A,,G,, | 
[V:1] fe.d2z4 | 
[V:2] FE.D2z4 | 
[V:3] F,E,.D,2z4 | 
[V:4] F,,E,,.D,,2z4 | 
[V:1] F8 | 
[V:2] z8 | 
[V:3] z8 | 
[V:4] z8 | 
[V:1] ^F8 | 
[V:2] z8 | 
[V:3] z8 | 
[V:4] z8 | 
[V:1] GGAG =FFGF | 
[V:2] G8 | 
[V:3] z8 | 
[V:4] z8 | 
[V:1] EEFE DDED | 
[V:2] B8 | 
[V:3] z8 | 
[V:4] z8 | 
[V:1] CCDC B,B,CB, | 
[V:2] d8 | 
[V:3] z8 | 
[V:4] z8 | 
[V:1] A,A,B,A, G,G,A,G, | 
[V:2] ^d8 | 
[V:3] z4B,2G2- | 
[V:4] z4G,,4 | 
[V:1] CCDC _B,B,CB, | 
[V:2] e2z2e4 | 
[V:3] G2z2GGAG | 
[V:4] C,,2z2z4 | 
[V:1] A,A,G,A, =B,B,A,B, | 
[V:2] f2z2f4 | 
[V:3] F2z2DDCD | 
[V:4] C,2z2z4 | 
[V:1] CCDC _B,B,CB, | 
[V:2] e2z2[c4-e4] | 
[V:3] E2z2GGAG | 
[V:4] C,2z2z4 | 
[V:1] A,A,G,A, =B,B,A,B, | 
[V:2] [c2f2]z2[d4f4] | 
[V:3] F2z2DDCD | 
[V:4] C,2z2z4 | 
[V:1] CCDC _B,B,CB, | 
[V:2] e2z2g4- | 
[V:3] G,2z2DDED | 
[V:4] C,2z2z4 | 
[V:1] A,A,_B,A, ^CCDC | 
[V:2] g4e4 | 
[V:3] ^C2z2A4- | 
[V:4] A,,2z2z4 | 
[V:1] DDED _A,A,_B,A, | 
[V:2] f2z2f4- | 
[V:3] A2z2=CCDC | 
[V:4] D,2z2z4 | 
[V:1] G,G,_A,G, =B,B,CB, | 
[V:2] f4d4 | 
[V:3] B,2z2G4- | 
[V:4] G,,2z2z4 | 
[V:1] CCDC _B,B,CB, | 
[V:2] e2g4g2- | 
[V:3] G2z2DDED | 
[V:4] C,2C,2z2C,2 | 
[V:1] A,A,_B,A, ^CCDC | 
[V:2] g2e2e3d/e/ | 
[V:3] ^C2z2AAAA | 
[V:4] A,,2A,,2z2A,,2 | 
[V:1] DDED _A,A,_B,A, | 
[V:2] f2f4f2- | 
[V:3] A2z2=CCDC | 
[V:4] D,2D,2z2D,2 | 
[V:1] G,G,_A,G, =B,B,CB, | 
[V:2] f2d2d4 | 
[V:3] B,2z2GGGG | 
[V:4] G,,2G,,2z2G,,2 | 
[V:1] CCDC _B,B,CB, | 
[V:2] {/c2d2} .eg^fg agfg | 
[V:3] EEFE DDED | 
[V:4] C,C,D,C, _B,,B,,C,B,, | 
[V:1] A,A,_B,A, ^CCDC | 
[V:2] z ede =fede | 
[V:3] ^CCDC EEFE | 
[V:4] A,,A,,_B,,A,, ^C,C,D,C, | 
[V:1] DDED _A,A,_B,A, | 
[V:2] z fef gfef | 
[V:3] FFGF =CCDC | 
[V:4] D,D,E,D, _A,,A,,_B,,A,, | 
[V:1] G,G,_A,G, =B,B,CB, | 
[V:2] z dcd edcd | 
[V:3] B,B,CB, FFEF | 
[V:4] G,,G,,_A,,G,, G,,G,,G,,G,, | 
[V:1] CCB,C DDCD | 
[V:2] ceee eeee | 
[V:3] ECCC CCCC | 
[V:4] G,,G,,G,,G,, G,,G,,G,,G,, | 
[V:1] EEDE FFEF | 
[V:2] eeee eeee | 
[V:3] CCCC CCCC | 
[V:4] G,,G,,G,,G,, G,,G,,G,,G,, | 
[V:1] GGFG AAGA | 
[V:2] ffff ffff | 
[V:3] DDDD DDDD | 
[V:4] G,,G,,G,,G,, G,,G,,G,,G,, | 
[V:1] _BBAB =BBAB | 
[V:2] ffff ffff | 
[V:3] DDDD DDDD | 
[V:4] G,,G,,G,,G,, G,,G,,G,,G,, | 
[V:1] ccBc ddcd | 
[V:2] eEEE EEEE | 
[V:3] CC,C,C, C,C,C,C, | 
[V:4] G,,G,,G,,G,, G,,G,,G,,G,, | 
[V:1] eede ffef | 
[V:2] EEEE EEEE | 
[V:3] C,C,C,C, C,C,C,C, | 
[V:4] G,,G,,G,,G,, G,,G,,G,,G,, | 
[V:1] ggfg aaga | 
[V:2] FFFF FFFF | 
[V:3] D,D,D,D, D,D,D,D, | 
[V:4] G,,G,,G,,G,, G,,G,,G,,G,, | 
[V:1] _bbab =bbab | 
[V:2] FFFF FFFF | 
[V:3] D,D,D,D, D,D,D,D, | 
[V:4] G,,G,,G,,G,, G,,G,,G,,G,, | 
[V:1] c'c'bc' c'c'bc' | 
[V:2] Eede eede | 
[V:3] C,EDE EEDE | 
[V:4] C,C,D,C, C,C,D,C, | 
[V:1] d'd'c'd' e'e'd'e' | 
[V:2] ffef ggfg | 
[V:3] FFEF GGFG | 
[V:4] B,,B,,C,B,, A,,A,,B,,A,, | 
[V:1] f'f'e'f' g'g'f'g' | 
[V:2] aaga bbab | 
[V:3] AAGA BBAB | 
[V:4] G,,G,,A,,G,, F,,F,,G,,F,, | 
[V:1] a'a'g'a' b'b'a'b' | 
[V:2] c'c'bc' d'd'c'd' | 
[V:3] ccBc ddcd | 
[V:4] E,,E,,F,,E,, D,,D,,E,,D,, | 
[V:1] c''c''g'g' e'e' g'g' | 
[V:2] e'2gg ee gg | 
[V:3] e2GG EE GG | 
[V:4] C,,2G,G, E,E, G,G, | 
[V:1] c'c' e'e' gg c'c' | 
[V:2] cc ee GG cc | 
[V:3] CC EE G,G, CC | 
[V:4] CC EE G,G, CC | 
[V:1] ee gg cc ee | 
[V:2] EE GG CC EE | 
[V:3] E,E, G,G, C,C, E,E, | 
[V:4] E,E, G,G, C,C, E,E, | 
[V:1] GG cc EE gg | 
[V:2] G,G, CC EE cc | 
[V:3] G,G, CC E,E, EE | 
[V:4] G,,G,, C,C, E,,E,, C,,C,, | 
[V:1] a2z2z4 | 
[V:2] A2z2z4 | 
[V:3] F2z2z4 | 
[V:4] F,,2z2z4 | 
[V:1] [G,2G2d2b2]z2z4 | 
[V:2] [G,2D2B2]z2z4 | 
[V:3] [G,2F2]z2z4 | 
[V:4] G,,2z2z4 | 
[V:1] [C2G2e2c'2]z2z4 |]  
[V:2] [G,2E2c2]z2z4 |]  
[V:3] [C,2G,2E2]z2z4 |]  
[V:4] C,,2z2z4 |]  


